; G-Code generated by Simplify3D(R) Version 3.0.2
; Mar 10, 2016 at 9:24:12 PM
; Settings Summary
;   processName,PABS
;   applyToModels,NiMhHolder
;   profileName,ABS (modified)
;   profileVersion,2015-05-01 08:00:00
;   baseProfile,LulzBot TAZ 5(4)
;   printMaterial,ABS
;   printQuality,Medium
;   printExtruders,
;   extruderName,Primary Extruder
;   extruderToolheadNumber,0
;   extruderDiameter,0.35
;   extruderAutoWidth,0
;   extruderWidth,0.4
;   extrusionMultiplier,1
;   extruderUseRetract,1
;   extruderRetractionDistance,1.7
;   extruderExtraRestartDistance,0
;   extruderRetractionZLift,0
;   extruderRetractionSpeed,1800
;   extruderUseCoasting,0
;   extruderCoastingDistance,0.2
;   extruderUseWipe,0
;   extruderWipeDistance,5
;   primaryExtruder,0
;   layerHeight,0.2
;   topSolidLayers,3
;   bottomSolidLayers,3
;   perimeterOutlines,2
;   printPerimetersInsideOut,1
;   startPointOption,2
;   startPointOriginX,0
;   startPointOriginY,0
;   startPointOriginZ,300
;   sequentialIslands,0
;   spiralVaseMode,0
;   firstLayerHeightPercentage,90
;   firstLayerWidthPercentage,100
;   firstLayerUnderspeed,0.5
;   useRaft,0
;   raftExtruder,0
;   raftLayers,3
;   raftOffset,3
;   raftSeparationDistance,0.14
;   raftInfill,85
;   disableRaftBaseLayers,0
;   useSkirt,1
;   skirtExtruder,0
;   skirtLayers,1
;   skirtOutlines,2
;   skirtOffset,6
;   usePrimePillar,0
;   primePillarExtruder,999
;   primePillarWidth,12
;   primePillarLocation,7
;   primePillarSpeedMultiplier,1
;   useOozeShield,0
;   oozeShieldExtruder,999
;   oozeShieldOffset,2
;   oozeShieldOutlines,1
;   oozeShieldSidewallShape,1
;   oozeShieldSidewallAngle,30
;   oozeShieldSpeedMultiplier,1
;   infillExtruder,0
;   internalInfillPattern,Full Honeycomb
;   externalInfillPattern,Rectilinear
;   infillPercentage,20
;   outlineOverlapPercentage,15
;   infillExtrusionWidthPercentage,200
;   minInfillLength,5
;   infillLayerInterval,1
;   infillAngles,0,120,-120
;   overlapInfillAngles,0
;   generateSupport,1
;   supportExtruder,0
;   supportInfillPercentage,30
;   supportExtraInflation,0
;   denseSupportLayers,0
;   denseSupportInfillPercentage,70
;   supportLayerInterval,1
;   supportHorizontalPartOffset,0.3
;   supportUpperSeparationLayers,1
;   supportLowerSeparationLayers,1
;   supportType,0
;   supportGridSpacing,4
;   maxOverhangAngle,45
;   supportAngles,0
;   temperatureName,Primary Extruder,Heated Bed
;   temperatureNumber,0,1
;   temperatureSetpointCount,1,1
;   temperatureSetpointLayers,1,1
;   temperatureSetpointTemperatures,240,110
;   temperatureStabilizeAtStartup,1,1
;   temperatureHeatedBed,0,1
;   temperatureRelayBetweenLayers,0,0
;   temperatureRelayBetweenLoops,0,0
;   fanLayers,1
;   fanSpeeds,0
;   blipFanToFullPower,1
;   adjustSpeedForCooling,1
;   minSpeedLayerTime,15
;   minCoolingSpeedSlowdown,20
;   increaseFanForCooling,0
;   minFanLayerTime,45
;   maxCoolingFanSpeed,100
;   increaseFanForBridging,0
;   bridgingFanSpeed,100
;   use5D,1
;   relativeEdistances,0
;   allowEaxisZeroing,1
;   independentExtruderAxes,0
;   includeM10123,0
;   stickySupport,1
;   applyToolheadOffsets,0
;   gcodeXoffset,0
;   gcodeYoffset,0
;   gcodeZoffset,0
;   overrideMachineDefinition,1
;   machineTypeOverride,0
;   strokeXoverride,298
;   strokeYoverride,275
;   strokeZoverride,250
;   originOffsetXoverride,0
;   originOffsetYoverride,0
;   originOffsetZoverride,0
;   homeXdirOverride,-1
;   homeYdirOverride,-1
;   homeZdirOverride,-1
;   flipXoverride,1
;   flipYoverride,-1
;   flipZoverride,1
;   toolheadOffsets,0,0|0,0|0,0|0,0|0,0|0,0
;   overrideFirmwareConfiguration,1
;   firmwareTypeOverride,RepRap (Marlin/Repetier/Sprinter)
;   GPXconfigOverride,r2
;   baudRateOverride,115200
;   overridePrinterModels,1
;   printerModelsOverride,LulzBot_TAZ3.stl
;   startingGcode,G28 ; home all axes
;   layerChangeGcode,
;   retractionGcode,
;   toolChangeGcode,
;   endingGcode,M104 S0 ; turn off extruder,M140 S0 ; turn off bed,G28 X0 ; home X axis,M84 ; disable motors
;   createX3G,0
;   celebration,0
;   celebrationSong,Random Song
;   createMB5G,0
;   postProcessing,
;   defaultSpeed,3600
;   outlineUnderspeed,0.5
;   solidInfillUnderspeed,0.8
;   supportUnderspeed,0.8
;   rapidXYspeed,4800
;   rapidZspeed,1000
;   minBridgingArea,50
;   bridgingExtraInflation,0
;   bridgingExtrusionMultiplier,1
;   bridgingSpeedMultiplier,1
;   filamentDiameter,3
;   filamentPricePerKg,46
;   filamentDensity,1.25
;   useMinPrintHeight,0
;   minPrintHeight,0
;   useMaxPrintHeight,0
;   maxPrintHeight,0
;   useDiaphragm,0
;   diaphragmLayerInterval,20
;   robustSlicing,1
;   mergeAllIntoSolid,0
;   onlyRetractWhenCrossingOutline,1
;   retractBetweenLayers,1
;   useRetractionMinTravel,0
;   retractionMinTravel,3
;   retractWhileWiping,0
;   onlyWipeOutlines,1
;   avoidCrossingOutline,0
;   maxMovementDetourFactor,3
;   toolChangeRetractionDistance,12
;   toolChangeExtraRestartDistance,-0.5
;   toolChangeRetractionSpeed,600
;   allowThinWallGapFill,1
;   thinWallAllowedOverlapPercentage,10
;   horizontalSizeCompensation,0
G90
M82
M106 S0
M140 S110
M190 S110
M104 S240 T0
M109 S240 T0
G28 ; home all axes
G92 E0
G1 E-1.7000 F1800
G1 Z0.180 F1000
; layer 1, Z = 0.18
T0
; tool H0.200 W0.400
; skirt
G1 X100.175 Y101.991 F4800
G1 E0.0000 F540
G92 E0
G1 X100.395 Y101.900 E0.0027 F1800
G1 X139.605 Y101.900 E0.4465
G1 X139.825 Y101.991 E0.4492
G1 X143.509 Y105.675 E0.5081
G1 X143.600 Y105.895 E0.5108
G1 X143.600 Y169.105 E1.2262
G1 X143.509 Y169.325 E1.2289
G1 X139.825 Y173.009 E1.2879
G1 X139.605 Y173.100 E1.2906
G1 X100.395 Y173.100 E1.7343
G1 X100.175 Y173.009 E1.7370
G1 X96.491 Y169.325 E1.7960
G1 X96.400 Y169.105 E1.7987
G1 X96.400 Y105.895 E2.5141
G1 X96.491 Y105.675 E2.5168
G1 X100.175 Y101.991 E2.5757
G1 X100.401 Y102.330 F4800
G92 E0
G1 X100.475 Y102.300 E0.0009 F1800
G1 X139.525 Y102.300 E0.4429
G1 X139.599 Y102.330 E0.4438
G1 X143.170 Y105.901 E0.5009
G1 X143.200 Y105.975 E0.5018
G1 X143.200 Y169.025 E1.2154
G1 X143.170 Y169.099 E1.2163
G1 X139.599 Y172.670 E1.2735
G1 X139.525 Y172.700 E1.2744
G1 X100.475 Y172.700 E1.7163
G1 X100.401 Y172.670 E1.7172
G1 X96.830 Y169.099 E1.7744
G1 X96.800 Y169.025 E1.7753
G1 X96.800 Y105.975 E2.4888
G1 X96.830 Y105.901 E2.4897
G1 X100.401 Y102.330 E2.5469
G92 E0
G1 E-1.7000 F1800
; inner perimeter
G1 X103.600 Y109.100 F4800
G1 E0.0000 F1800
G92 E0
G1 X136.400 Y109.100 E0.3712 F1350
G1 X136.400 Y165.900 E1.0141
G1 X103.600 Y165.900 E1.3853
G1 X103.600 Y109.100 E2.0281
; outer perimeter
G1 X103.200 Y108.700 F4800
G92 E0
G1 X136.800 Y108.700 E0.3803 F900
G1 X136.800 Y166.300 E1.0322
G1 X103.200 Y166.300 E1.4124
G1 X103.200 Y108.700 E2.0643
; solid layer
G1 X103.940 Y109.951 F4800
G92 E0
G1 X104.451 Y109.440 E0.0082 F1440
G1 X105.017 Y109.440 E0.0146
G1 X103.940 Y110.517 E0.0318
G1 X103.940 Y111.083 E0.0382
G1 X105.583 Y109.440 E0.0645
G1 X106.148 Y109.440 E0.0709
G1 X103.940 Y111.648 E0.1063
G1 X103.940 Y112.214 E0.1127
G1 X106.714 Y109.440 E0.1571
G1 X107.280 Y109.440 E0.1635
G1 X103.940 Y112.780 E0.2169
G1 X103.940 Y113.345 E0.2233
G1 X107.845 Y109.440 E0.2858
G1 X108.411 Y109.440 E0.2922
G1 X103.940 Y113.911 E0.3638
G1 X103.940 Y114.477 E0.3702
G1 X108.977 Y109.440 E0.4508
G1 X109.542 Y109.440 E0.4572
G1 X103.940 Y115.042 E0.5469
G1 X103.940 Y115.608 E0.5533
G1 X110.108 Y109.440 E0.6520
G1 X110.674 Y109.440 E0.6584
G1 X103.940 Y116.174 E0.7662
G1 X103.940 Y116.740 E0.7726
G1 X111.240 Y109.440 E0.8894
G1 X111.805 Y109.440 E0.8958
G1 X103.940 Y117.305 E1.0217
G1 X103.940 Y117.871 E1.0281
G1 X112.371 Y109.440 E1.1631
G1 X112.937 Y109.440 E1.1695
G1 X103.940 Y118.437 E1.3135
G1 X103.940 Y119.002 E1.3199
G1 X113.502 Y109.440 E1.4729
G1 X114.068 Y109.440 E1.4793
G1 X103.940 Y119.568 E1.6414
G1 X103.940 Y120.134 E1.6478
G1 X114.634 Y109.440 E1.8190
G1 X115.199 Y109.440 E1.8254
G1 X103.940 Y120.699 E2.0056
G1 X103.940 Y121.265 E2.0120
G1 X115.765 Y109.440 E2.2013
G1 X116.331 Y109.440 E2.2077
G1 X103.940 Y121.831 E2.4060
G1 X103.940 Y122.396 E2.4124
G1 X116.896 Y109.440 E2.6198
G1 X117.462 Y109.440 E2.6262
G1 X103.940 Y122.962 E2.8426
G1 X103.940 Y123.528 E2.8490
G1 X118.028 Y109.440 E3.0745
G1 X118.593 Y109.440 E3.0809
G1 X103.940 Y124.093 E3.3154
G1 X103.940 Y124.659 E3.3218
G1 X119.159 Y109.440 E3.5654
G1 X119.725 Y109.440 E3.5718
G1 X103.940 Y125.225 E3.8245
G1 X103.940 Y125.790 E3.8309
G1 X120.290 Y109.440 E4.0926
G1 X120.856 Y109.440 E4.0990
G1 X103.940 Y126.356 E4.3697
G1 X103.940 Y126.922 E4.3761
G1 X121.422 Y109.440 E4.6559
G1 X121.988 Y109.440 E4.6623
G1 X103.940 Y127.488 E4.9512
G1 X103.940 Y128.053 E4.9576
G1 X122.553 Y109.440 E5.2555
G1 X123.119 Y109.440 E5.2619
G1 X103.940 Y128.619 E5.5689
G1 X103.940 Y129.185 E5.5753
G1 X123.685 Y109.440 E5.8913
G1 X124.250 Y109.440 E5.8977
G1 X103.940 Y129.750 E6.2228
G1 X103.940 Y130.316 E6.2292
G1 X124.816 Y109.440 E6.5633
G1 X125.382 Y109.440 E6.5697
G1 X103.940 Y130.882 E6.9129
G1 X103.940 Y131.447 E6.9193
G1 X125.947 Y109.440 E7.2716
G1 X126.513 Y109.440 E7.2780
G1 X103.940 Y132.013 E7.6393
G1 X103.940 Y132.579 E7.6457
G1 X127.079 Y109.440 E8.0160
G1 X127.644 Y109.440 E8.0224
G1 X103.940 Y133.144 E8.4018
G1 X103.940 Y133.710 E8.4082
G1 X128.210 Y109.440 E8.7967
G1 X128.776 Y109.440 E8.8031
G1 X103.940 Y134.276 E9.2006
G1 X103.940 Y134.841 E9.2070
G1 X129.341 Y109.440 E9.6136
G1 X129.907 Y109.440 E9.6200
G1 X103.940 Y135.407 E10.0356
G1 X103.940 Y135.973 E10.0420
G1 X130.473 Y109.440 E10.4667
G1 X131.039 Y109.440 E10.4731
G1 X103.940 Y136.539 E10.9068
G1 X103.940 Y137.104 E10.9132
G1 X131.604 Y109.440 E11.3560
G1 X132.170 Y109.440 E11.3624
G1 X103.940 Y137.670 E11.8142
G1 X103.940 Y138.236 E11.8206
G1 X132.736 Y109.440 E12.2815
G1 X133.301 Y109.440 E12.2879
G1 X103.940 Y138.801 E12.7579
G1 X103.940 Y139.367 E12.7643
G1 X133.867 Y109.440 E13.2433
G1 X134.433 Y109.440 E13.2497
G1 X103.940 Y139.933 E13.7377
G1 X103.940 Y140.498 E13.7441
G1 X134.998 Y109.440 E14.2412
G1 X135.564 Y109.440 E14.2476
G1 X103.940 Y141.064 E14.7538
G1 X103.940 Y141.630 E14.7602
G1 X136.060 Y109.510 E15.2743
G1 X136.060 Y110.075 E15.2807
G1 X103.940 Y142.195 E15.7948
G1 X103.940 Y142.761 E15.8012
G1 X136.060 Y110.641 E16.3153
G1 X136.060 Y111.207 E16.3217
G1 X103.940 Y143.327 E16.8358
G1 X103.940 Y143.892 E16.8422
G1 X136.060 Y111.772 E17.3563
G1 X136.060 Y112.338 E17.3627
G1 X103.940 Y144.458 E17.8768
G1 X103.940 Y145.024 E17.8832
G1 X136.060 Y112.904 E18.3973
G1 X136.060 Y113.469 E18.4037
G1 X103.940 Y145.589 E18.9178
G1 X103.940 Y146.155 E18.9242
G1 X136.060 Y114.035 E19.4383
G1 X136.060 Y114.601 E19.4447
G1 X103.940 Y146.721 E19.9588
G1 X103.940 Y147.287 E19.9652
G1 X136.060 Y115.167 E20.4793
G1 X136.060 Y115.732 E20.4857
G1 X103.940 Y147.852 E20.9998
G1 X103.940 Y148.418 E21.0062
G1 X136.060 Y116.298 E21.5203
G1 X136.060 Y116.864 E21.5267
G1 X103.940 Y148.984 E22.0408
G1 X103.940 Y149.549 E22.0472
G1 X136.060 Y117.429 E22.5613
G1 X136.060 Y117.995 E22.5677
G1 X103.940 Y150.115 E23.0818
G1 X103.940 Y150.681 E23.0882
G1 X136.060 Y118.561 E23.6023
G1 X136.060 Y119.126 E23.6087
G1 X103.940 Y151.246 E24.1228
G1 X103.940 Y151.812 E24.1292
G1 X136.060 Y119.692 E24.6433
G1 X136.060 Y120.258 E24.6497
G1 X103.940 Y152.378 E25.1638
G1 X103.940 Y152.943 E25.1703
G1 X136.060 Y120.823 E25.6844
G1 X136.060 Y121.389 E25.6908
G1 X103.940 Y153.509 E26.2049
G1 X103.940 Y154.075 E26.2113
G1 X136.060 Y121.955 E26.7254
G1 X136.060 Y122.520 E26.7318
G1 X103.940 Y154.640 E27.2459
G1 X103.940 Y155.206 E27.2523
G1 X136.060 Y123.086 E27.7664
G1 X136.060 Y123.652 E27.7728
G1 X103.940 Y155.772 E28.2869
G1 X103.940 Y156.337 E28.2933
G1 X136.060 Y124.217 E28.8074
G1 X136.060 Y124.783 E28.8138
G1 X103.940 Y156.903 E29.3279
G1 X103.940 Y157.469 E29.3343
G1 X136.060 Y125.349 E29.8484
G1 X136.060 Y125.915 E29.8548
G1 X103.940 Y158.035 E30.3689
G1 X103.940 Y158.600 E30.3753
G1 X136.060 Y126.480 E30.8894
G1 X136.060 Y127.046 E30.8958
G1 X103.940 Y159.166 E31.4099
G1 X103.940 Y159.732 E31.4163
G1 X136.060 Y127.612 E31.9304
G1 X136.060 Y128.177 E31.9368
G1 X103.940 Y160.297 E32.4509
G1 X103.940 Y160.863 E32.4573
G1 X136.060 Y128.743 E32.9714
G1 X136.060 Y129.309 E32.9778
G1 X103.940 Y161.429 E33.4919
G1 X103.940 Y161.994 E33.4983
G1 X136.060 Y129.874 E34.0124
G1 X136.060 Y130.440 E34.0188
G1 X103.940 Y162.560 E34.5329
G1 X103.940 Y163.126 E34.5393
G1 X136.060 Y131.006 E35.0534
G1 X136.060 Y131.571 E35.0598
G1 X103.940 Y163.691 E35.5739
G1 X103.940 Y164.257 E35.5803
G1 X136.060 Y132.137 E36.0944
G1 X136.060 Y132.703 E36.1008
G1 X103.940 Y164.823 E36.6149
G1 X103.940 Y165.388 E36.6213
G1 X136.060 Y133.268 E37.1354
G1 X136.060 Y133.834 E37.1418
G1 X104.334 Y165.560 E37.6496
G1 X104.900 Y165.560 E37.6560
G1 X136.060 Y134.400 E38.1548
G1 X136.060 Y134.966 E38.1612
G1 X105.466 Y165.560 E38.6508
G1 X106.031 Y165.560 E38.6572
G1 X136.060 Y135.531 E39.1379
G1 X136.060 Y136.097 E39.1443
G1 X106.597 Y165.560 E39.6158
G1 X107.163 Y165.560 E39.6222
G1 X136.060 Y136.663 E40.0848
G1 X136.060 Y137.228 E40.0912
G1 X107.728 Y165.560 E40.5446
G1 X108.294 Y165.560 E40.5510
G1 X136.060 Y137.794 E40.9955
G1 X136.060 Y138.360 E41.0019
G1 X108.860 Y165.560 E41.4372
G1 X109.425 Y165.560 E41.4436
G1 X136.060 Y138.925 E41.8699
G1 X136.060 Y139.491 E41.8763
G1 X109.991 Y165.560 E42.2936
G1 X110.557 Y165.560 E42.3000
G1 X136.060 Y140.057 E42.7082
G1 X136.060 Y140.622 E42.7146
G1 X111.122 Y165.560 E43.1137
G1 X111.688 Y165.560 E43.1201
G1 X136.060 Y141.188 E43.5102
G1 X136.060 Y141.754 E43.5166
G1 X112.254 Y165.560 E43.8976
G1 X112.819 Y165.560 E43.9040
G1 X136.060 Y142.319 E44.2760
G1 X136.060 Y142.885 E44.2824
G1 X113.385 Y165.560 E44.6454
G1 X113.951 Y165.560 E44.6518
G1 X136.060 Y143.451 E45.0056
G1 X136.060 Y144.016 E45.0120
G1 X114.516 Y165.560 E45.3568
G1 X115.082 Y165.560 E45.3632
G1 X136.060 Y144.582 E45.6990
G1 X136.060 Y145.148 E45.7054
G1 X115.648 Y165.560 E46.0321
G1 X116.214 Y165.560 E46.0385
G1 X136.060 Y145.714 E46.3562
G1 X136.060 Y146.279 E46.3626
G1 X116.779 Y165.560 E46.6712
G1 X117.345 Y165.560 E46.6776
G1 X136.060 Y146.845 E46.9771
G1 X136.060 Y147.411 E46.9835
G1 X117.911 Y165.560 E47.2740
G1 X118.476 Y165.560 E47.2804
G1 X136.060 Y147.976 E47.5619
G1 X136.060 Y148.542 E47.5683
G1 X119.042 Y165.560 E47.8407
G1 X119.608 Y165.560 E47.8471
G1 X136.060 Y149.108 E48.1104
G1 X136.060 Y149.673 E48.1168
G1 X120.173 Y165.560 E48.3711
G1 X120.739 Y165.560 E48.3775
G1 X136.060 Y150.239 E48.6227
G1 X136.060 Y150.805 E48.6291
G1 X121.305 Y165.560 E48.8653
G1 X121.870 Y165.560 E48.8717
G1 X136.060 Y151.370 E49.0988
G1 X136.060 Y151.936 E49.1052
G1 X122.436 Y165.560 E49.3232
G1 X123.002 Y165.560 E49.3296
G1 X136.060 Y152.502 E49.5386
G1 X136.060 Y153.067 E49.5450
G1 X123.567 Y165.560 E49.7450
G1 X124.133 Y165.560 E49.7514
G1 X136.060 Y153.633 E49.9423
G1 X136.060 Y154.199 E49.9487
G1 X124.699 Y165.560 E50.1305
G1 X125.265 Y165.560 E50.1369
G1 X136.060 Y154.765 E50.3097
G1 X136.060 Y155.330 E50.3161
G1 X125.830 Y165.560 E50.4799
G1 X126.396 Y165.560 E50.4863
G1 X136.060 Y155.896 E50.6410
G1 X136.060 Y156.462 E50.6474
G1 X126.962 Y165.560 E50.7930
G1 X127.527 Y165.560 E50.7994
G1 X136.060 Y157.027 E50.9360
G1 X136.060 Y157.593 E50.9424
G1 X128.093 Y165.560 E51.0699
G1 X128.659 Y165.560 E51.0763
G1 X136.060 Y158.159 E51.1947
G1 X136.060 Y158.724 E51.2011
G1 X129.224 Y165.560 E51.3106
G1 X129.790 Y165.560 E51.3170
G1 X136.060 Y159.290 E51.4173
G1 X136.060 Y159.856 E51.4237
G1 X130.356 Y165.560 E51.5150
G1 X130.921 Y165.560 E51.5214
G1 X136.060 Y160.421 E51.6037
G1 X136.060 Y160.987 E51.6101
G1 X131.487 Y165.560 E51.6833
G1 X132.053 Y165.560 E51.6897
G1 X136.060 Y161.553 E51.7538
G1 X136.060 Y162.118 E51.7602
G1 X132.618 Y165.560 E51.8153
G1 X133.184 Y165.560 E51.8217
G1 X136.060 Y162.684 E51.8677
G1 X136.060 Y163.250 E51.8741
G1 X133.750 Y165.560 E51.9111
G1 X134.315 Y165.560 E51.9175
G1 X136.060 Y163.815 E51.9454
G1 X136.060 Y164.381 E51.9518
G1 X134.881 Y165.560 E51.9707
G1 X135.447 Y165.560 E51.9771
G1 X136.060 Y164.947 E51.9869
G1 X136.060 Y165.513 E51.9933
G1 X136.013 Y165.560 E51.9941
G92 E0
G1 E-1.7000 F1800
; support
G1 X139.160 Y145.500 F4800
